rospo-icon-theme-classic-common/64x64/apps/stride.svg

<svg height="64" viewBox="0 0 64 64" width="64" xmlns="http://www.w3.org/2000/svg"><path d="m20.271412 8.9999994c-1.218863.0001196-2.206914.9664162-2.207037 2.1584406 0 9.793818-1.848571 16.924522-3.745928 19.785208-1.075128 1.62099-1.896532 2.478204-3.189859 3.085894-1.2933264.60769-3.5801462.984366-6.9215506.984366-1.2188632.00012-2.2069162.966418-2.2070374 2.158442v17.66921c.000122 1.192024.9881748 2.158322 2.2070374 2.15844 12.0352756 0 22.9569386-5.212238 28.9436586-14.238538 5.879168-8.86414 7.420732-19.617526 7.420732-31.603022-.000122-1.192025-.988174-2.1583218-2.207038-2.1584406z" fill-rule="evenodd" opacity=".2"/><path d="m20.271412 7.9999998c-1.218863.0001196-2.206914.9664162-2.207037 2.1584402 0 9.793818-1.848571 16.924522-3.745928 19.785208-1.075128 1.62099-1.896532 2.478204-3.189859 3.085894-1.2933264.60769-3.5801462.984366-6.9215506.984366-1.2188632.00012-2.2069162.966418-2.2070374 2.158442v17.66921c.000122 1.192024.9881748 2.158322 2.2070374 2.15844 12.0352756 0 22.9569386-5.212238 28.9436586-14.238538 5.879168-8.86414 7.420732-19.617526 7.420732-31.603022-.000122-1.1920246-.988174-2.1583214-2.207038-2.1584402z" fill="#115ccc" fill-rule="evenodd"/><path d="m20.215176 8.9999994a2.2161462 2.218072 0 0 0 -1.993035 3.1859946l21.103219 43.564298a2.2161462 2.218072 0 0 0 1.995196 1.249708h18.465316a2.2161462 2.218072 0 0 0 1.993034-3.18383l-21.103218-43.566464a2.2161462 2.218072 0 0 0 -1.993034-1.2497066z" opacity=".2"/><path d="m20.215176 7.9999998a2.2161462 2.218072 0 0 0 -1.993035 3.1859942l21.103219 43.564298a2.2161462 2.218072 0 0 0 1.995196 1.249708h18.465316a2.2161462 2.218072 0 0 0 1.993034-3.18383l-21.103218-43.5664634a2.2161462 2.218072 0 0 0 -1.993034-1.2497068z" fill="#3387f5"/><path d="m20.214844 8a2.2161462 2.218072 0 0 0 -2.15625 2.720703 2.2161462 2.218072 0 0 1 2.15625-1.720703h18.46875a2.2161462 2.218072 0 0 1 1.992187 1.25l21.103516 43.566406a2.2161462 2.218072 0 0 1  .162109.458985 2.2161462 2.218072 0 0 0 -.162109-1.458985l-21.103516-43.566406a2.2161462 2.218072 0 0 0 -1.992187-1.25z" fill="#fff" opacity=".2"/><path d="m20.271484 8c-1.218863.0001196-2.206908.9661791-2.207031 2.158203 0 9.793818-1.848737 16.92447-3.746094 19.785156-1.075128 1.62099-1.896126 2.478248-3.189453 3.085938-1.2933261.60769-3.5804703.984375-6.9218748.984375-1.2188632.00012-2.20691.966179-2.2070312 2.158203v1c .0001212-1.192024.988168-2.158083 2.2070312-2.158203 3.3414045 0 5.6285487-.376685 6.9218748-.984375 1.293327-.60769 2.114325-1.464948 3.189453-3.085938 1.897357-2.860686 3.746094-9.991338 3.746094-19.785156.000123-1.1920243.988168-2.1580834 2.207031-2.158203h18.09375c1.167604.0001138 2.112971.8892672 2.191407 2.011719.001822-.286859.015625-.565222.015625-.853516-.000122-1.1920245-.988168-2.1580842-2.207032-2.158203z" fill="#fff" fill-rule="evenodd" opacity=".1"/></svg>

<svg xmlns="http://www.w3.org/2000/svg" width="64" height="64" version="1.1" viewBox="0 0 64 64">
 <path d="m 20.271412,8.9999994 c -1.218863,1.196e-4 -2.206914,0.9664162 -2.207037,2.1584406 0,9.793818 -1.848571,16.924522 -3.745928,19.785208 -1.075128,1.62099 -1.896532,2.478204 -3.189859,3.085894 -1.2933264,0.60769 -3.5801462,0.984366 -6.9215506,0.984366 C 2.9881742,35.014028 2.0001212,35.980326 2,37.17235 L 2,54.84156 C 2.000122,56.033584 2.9881748,56.999882 4.2070374,57 16.242313,57 27.163976,51.787762 33.150696,42.761462 39.029864,33.897322 40.571428,23.143936 40.571428,11.15844 40.571306,9.966415 39.583254,9.0001182 38.36439,8.9999994 Z" style="opacity:0.2;fill-rule:evenodd"/>
 <path style="fill:#115ccc;fill-rule:evenodd" d="m 20.271412,7.9999998 c -1.218863,1.196e-4 -2.206914,0.9664162 -2.207037,2.1584402 0,9.793818 -1.848571,16.924522 -3.745928,19.785208 -1.075128,1.62099 -1.896532,2.478204 -3.189859,3.085894 -1.2933264,0.60769 -3.5801462,0.984366 -6.9215506,0.984366 C 2.9881742,34.014028 2.0001212,34.980326 2,36.17235 L 2,53.84156 C 2.000122,55.033584 2.9881748,55.999882 4.2070374,56 16.242313,56 27.163976,50.787762 33.150696,41.761462 39.029864,32.897322 40.571428,22.143936 40.571428,10.15844 40.571306,8.9664154 39.583254,8.0001186 38.36439,7.9999998 Z"/>
 <path d="M 20.215176,8.9999994 A 2.2161462,2.218072 0 0 0 18.222141,12.185994 L 39.32536,55.750292 A 2.2161462,2.218072 0 0 0 41.320556,57 l 18.465316,0 a 2.2161462,2.218072 0 0 0 1.993034,-3.18383 L 40.675688,10.249706 A 2.2161462,2.218072 0 0 0 38.682654,8.9999994 l -18.467478,0 z" style="opacity:0.2"/>
 <path style="fill:#3387f5" d="M 20.215176,7.9999998 A 2.2161462,2.218072 0 0 0 18.222141,11.185994 L 39.32536,54.750292 A 2.2161462,2.218072 0 0 0 41.320556,56 l 18.465316,0 a 2.2161462,2.218072 0 0 0 1.993034,-3.18383 L 40.675688,9.2497066 A 2.2161462,2.218072 0 0 0 38.682654,7.9999998 l -18.467478,0 z"/>
 <path style="opacity:0.2;fill:#ffffff" d="M 20.214844 8 A 2.2161462 2.218072 0 0 0 18.058594 10.720703 A 2.2161462 2.218072 0 0 1 20.214844 9 L 38.683594 9 A 2.2161462 2.218072 0 0 1 40.675781 10.25 L 61.779297 53.816406 A 2.2161462 2.218072 0 0 1 61.941406 54.275391 A 2.2161462 2.218072 0 0 0 61.779297 52.816406 L 40.675781 9.25 A 2.2161462 2.218072 0 0 0 38.683594 8 L 20.214844 8 z"/>
 <path style="opacity:0.1;fill:#ffffff;fill-rule:evenodd" d="M 20.271484 8 C 19.052621 8.0001196 18.064576 8.9661791 18.064453 10.158203 C 18.064453 19.952021 16.215716 27.082673 14.318359 29.943359 C 13.243231 31.564349 12.422233 32.421607 11.128906 33.029297 C 9.8355799 33.636987 7.5484357 34.013672 4.2070312 34.013672 C 2.988168 34.013792 2.0001212 34.979851 2 36.171875 L 2 37.171875 C 2.0001212 35.979851 2.988168 35.013792 4.2070312 35.013672 C 7.5484357 35.013672 9.8355799 34.636987 11.128906 34.029297 C 12.422233 33.421607 13.243231 32.564349 14.318359 30.943359 C 16.215716 28.082673 18.064453 20.952021 18.064453 11.158203 C 18.064576 9.9661787 19.052621 9.0001196 20.271484 9 L 38.365234 9 C 39.532838 9.0001138 40.478205 9.8892672 40.556641 11.011719 C 40.558463 10.72486 40.572266 10.446497 40.572266 10.158203 C 40.572144 8.9661785 39.584098 8.0001188 38.365234 8 L 20.271484 8 z"/>
</svg>
